packages/kaspersky-hexa-ui-icons/src/iconsSVGs/32/Ai.svg

<svg width="32" height="32" viewBox="0 0 32 32" fill="none" xmlns="http://www.w3.org/2000/svg">
<path fill-rule="evenodd" clip-rule="evenodd" d="M13.5889 3.84766C14.2523 1.38412 17.7477 1.38411 18.4111 3.84766L20.4033 11.2461C20.4494 11.4171 20.5829 11.5506 20.7539 11.5967L28.1523 13.5889C30.6159 14.2523 30.6159 17.7477 28.1523 18.4111L20.7539 20.4033C20.5829 20.4494 20.4494 20.5829 20.4033 20.7539L18.4111 28.1523C17.7477 30.6159 14.2523 30.6159 13.5889 28.1523L11.5967 20.7539C11.5506 20.5829 11.4171 20.4494 11.2461 20.4033L3.84764 18.4111C1.38411 17.7477 1.38409 14.2523 3.84764 13.5889L11.2461 11.5967C11.4171 11.5506 11.5506 11.4171 11.5967 11.2461L13.5889 3.84766ZM16.4795 4.36817C16.3474 3.87784 15.6525 3.87782 15.5205 4.36817L13.5283 11.7666C13.2969 12.6257 12.6256 13.2969 11.7666 13.5283L4.36815 15.5205C3.87782 15.6525 3.87781 16.3475 4.36815 16.4795L11.7666 18.4717C12.6256 18.7031 13.2969 19.3744 13.5283 20.2334L15.5205 27.6318C15.6525 28.1222 16.3474 28.1222 16.4795 27.6318L18.4717 20.2334C18.7031 19.3744 19.3743 18.7031 20.2334 18.4717L27.6318 16.4795C28.1222 16.3475 28.1222 15.6525 27.6318 15.5205L20.2334 13.5283C19.3743 13.2969 18.7031 12.6256 18.4717 11.7666L16.4795 4.36817Z" fill="black"/>
<path d="M25.5556 2.34082C25.6781 1.88655 26.3219 1.88656 26.4443 2.34082L27.0576 4.61719C27.1003 4.7757 27.2243 4.8997 27.3828 4.94238L29.6592 5.55567C30.1135 5.6781 30.1135 6.3219 29.6592 6.44434L27.3828 7.05762C27.2243 7.1003 27.1003 7.2243 27.0576 7.38281L26.4443 9.65918C26.3219 10.1135 25.6781 10.1135 25.5556 9.65918L24.9424 7.38281C24.8997 7.2243 24.7757 7.1003 24.6172 7.05762L22.3408 6.44434C21.8865 6.32188 21.8865 5.67812 22.3408 5.55567L24.6172 4.94238C24.7757 4.8997 24.8997 4.7757 24.9424 4.61719L25.5556 2.34082Z" fill="black"/>
</svg>

<svg xmlns="http://www.w3.org/2000/svg" width="32" height="32" fill="none" viewBox="0 0 32 32"><path fill="#000" fill-rule="evenodd" d="M13.5889 3.8477c.6634-2.4636 4.1588-2.4636 4.8222 0l1.9922 7.3984a.497.497 0 0 0 .3506.3506l7.3984 1.9922c2.4636.6634 2.4636 4.1588 0 4.8222l-7.3984 1.9922a.497.497 0 0 0-.3506.3506l-1.9922 7.3984c-.6634 2.4636-4.1588 2.4636-4.8222 0l-1.9922-7.3984a.497.497 0 0 0-.3506-.3506l-7.3984-1.9922c-2.4636-.6634-2.4636-4.1588 0-4.8222l7.3984-1.9922a.497.497 0 0 0 .3506-.3506zm12.8554-1.5069c-.1224-.4542-.7662-.4543-.8886 0l-.6133 2.2764a.461.461 0 0 1-.3252.3252l-2.2764.6133c-.4542.1224-.4542.7662 0 .8886l2.2764.6133a.461.461 0 0 1 .3252.3252l.6133 2.2764c.1224.4543.7662.4543.8886 0l.6133-2.2764a.461.461 0 0 1 .3252-.3252l2.2764-.6133c.4543-.1224.4543-.7662 0-.8886l-2.2764-.6133a.461.461 0 0 1-.3252-.3252zm-9.9648 2.0274c-.132-.4904-.827-.4904-.959 0l-1.9922 7.3984a2.497 2.497 0 0 1-1.7617 1.7617l-7.3984 1.9922c-.4904.132-.4904.827 0 .959l7.3984 1.9922a2.498 2.498 0 0 1 1.7617 1.7617l1.9922 7.3984c.132.4904.827.4904.959 0l1.9922-7.3984a2.498 2.498 0 0 1 1.7617-1.7617l7.3984-1.9922c.4904-.132.4904-.827 0-.959l-7.3984-1.9922a2.498 2.498 0 0 1-1.7617-1.7617z"/></svg>
